icons/browser-16.svg

<svg xmlns="http://www.w3.org/2000/svg" width="16" height="16" viewBox="0 0 16 16">
  <defs/>
  <path d="M0,2.75 C0,1.784 0.784,1 1.75,1 L14.25,1 C15.216,1 16,1.784 16,2.75 L16,13.25 C16,14.216 15.216,15 14.25,15 L1.75,15 C0.784,15 0,14.216 0,13.25 Z M14.5,6 L1.5,6 L1.5,13.25 C1.5,13.388 1.612,13.5 1.75,13.5 L14.25,13.5 C14.388,13.5 14.5,13.388 14.5,13.25 Z M8.5,2.5 L8.5,4.5 L14.5,4.5 L14.5,2.75 C14.5,2.612 14.388,2.5 14.25,2.5 Z M5,2.5 L5,4.5 L7,4.5 L7,2.5 Z M1.75,2.5 C1.612,2.5 1.5,2.612 1.5,2.75 L1.5,4.5 L3.5,4.5 L3.5,2.5 Z"/>
</svg>

<svg xmlns="http://www.w3.org/2000/svg" width="16" height="16" viewBox="0 0 16 16"><path d="M0 2.75C0 1.784.784 1 1.75 1h12.5c.966 0 1.75.784 1.75 1.75v10.5A1.75 1.75 0 0114.25 15H1.75A1.75 1.75 0 010 13.25zM14.5 6h-13v7.25c0 .138.112.25.25.25h12.5a.25.25 0 00.25-.25zm-6-3.5v2h6V2.75a.25.25 0 00-.25-.25zM5 2.5v2h2v-2zm-3.25 0a.25.25 0 00-.25.25V4.5h2v-2z"/></svg>
